!!!OTL@@DE: Fiducit
!!!ONB: Briesewitz
!!!ODT: 1834
!!!OMD: M&auml;ssig langsam
!!!LYR: Salomon, Elias
!!!LDT: 1834
!!!OCL: Erk, Ludwig
!!!GCO: Deutscher Liederschatz, Band 1
**kern	**kern	**kern
*staff3	*staff2	*staff1
*Ipiano	*Ipiano	*Ivox
*clefF4	*clefG2	*clefG2
*k[f#]	*k[f#]	*k[f#]
*G:	*G:	*G:
*met(C)	*met(C)	*met(C)
*M4/4	*M4/4	*M4/4
*MM92	*MM92	*MM92
4D\	4d/	4d/
=1	=1	=1
4GG/ 4G/	4B/ 4d/	4.b\
4GG/ 4G/	4B/ 4d/	.
.	.	8b\
4D\ 4F#\	4c/ 4d/	8a\L
.	.	8cc\J
4D\ 4F#\	4c/ 4d/	8b/L
.	.	8a/J
=2	=2	=2
4GG/ 4G/	4B/ 4d/	2g/
4GG/ 4G/	4B/ 4d/	.
4GG/ 4G/	4B/ 4d/	4d/
4r	4B/ 4d/	8g/L
.	.	8a/J
=3	=3	=3
4GG/ 4G/	4B/ 4d/	4.b\
4GG/ 4G/	4B/ 4d/	.
.	.	8b\
4FF#/ 4F#/	4B/ 4d#/	8b/L
.	.	8a/J
4BB/	4A/ 4B/ 4d#/	8g/L
.	.	8f#/J
=4	=4	=4
(4EE/	2G/ 2B/ 2e/	2e/
8GG/L	.	.
8BB/J	.	.
4E\)	4r	4r
*	*^	*
(8BB/L	(8g/L	4dn\	8g/L
8AA/J)	8f#/ 8a/J)	.	8a/J
*	*v	*v	*
=5	=5	=5
4GG/	4d/ 4g/ 4b/	4b\
*	*^	*
8G\L	4g/ 4b/	8d\L	8b\
8F#\J	.	8d#\J	8b\
4E\	4g/ 4b/	4e\	4b\
4EE/	(8f#/L	4e\	8a/
.	8g#/ 8b/J)	.	8b\
=6	=6	=6	=6
4AA/	(4.dd/	2e\ 2a\	(4.dd\
4A\	.	.	.
.	8cc/)	.	8cc\)
*	*v	*v	*
4AA/	4e/ 4a/ 4cc/	4cc\
4BB/	4d/ 4gn/ 4b/	4b\
=7	=7	=7
*^	*	*
4C/	2C\	4e/ 4g/ 4a/	4a/
8c/L	.	4e/ 4g/ 4a/	4a/
8B/J	.	.	.
4A/	2D\	4d/ 4f#/ 4a/	4a/
8B/L	.	8d/ 8g/L	8g/
8A/J	.	8d/ 8f#/ 8a/J	8a/
*v	*v	*	*
=8	=8	=8
(4.G\	2d/ 2g/ 2b/	2b\
8D\	.	.
8BB/L)	4r	4r
(8D/	.	.
*	*^	*
8BB/	(8g/L	4d\	8g/L
8AA/J)	8f#/ 8a/J)	.	8a/J
*	*v	*v	*
=9	=9	=9
4GG/	4d/ 4g/ 4b/	4b\
4FF#/	4d#/ 4a/ 4b/	4b/
4EE/	4e/ 4g#/ 4ee/	4ee\
*	*^	*
(8FF#/L	8a\L	(4e/ 4ddn/	4dd\
8GG#/J)	8b\J)	.	.
=10	=10	=10	=10
4AA/	(4.dd/	2e\ 2a\	(4.dd\
4A\	.	.	.
.	8cc/)	.	8cc\)
*	*v	*v	*
4AA/	4e/ 4a/ 4cc/	4cc\
4BB/	4d/ 4gn/ 4b/	4b\
=11	=11	=11
4C/	4e/ 4g/ 4a/	4a/
4C#\ 4A\	4e/ 4g/ 4a/	4a/
4D\ 4B\	4d/ 4g/ 4dd/	4dd\
*^	*^	*
(8A/L	4D\	8cc/L	4d\ 4f#\	8cc\L
8cn/J)	.	8a/J	.	8a\J
*v	*v	*	*	*
*	*v	*v	*
=12	=12	=12
2G\ 2B\	2d/ 2g/	2g/
4r	4r	4r
==	==	==
*-	*-	*-
!!!ENC: Craig Stuart Sapp
!!!END: 2004/06/27/
!!!EFL: 179/651
